X: 38336
T: Stack Ryan's
R: polka
M: 2/4
K: Gmajor
DG EG|DG EG|DG BG|FA AG/E/|
DG EG|DG EG|DG BG|FA G2:|
DG GA/G/|FA A2|DG FG|B2 BA/B/|
cc BB|AA A>B/|AG FG|1 A2 A2:|2 A2 AD||
GF/G/ BA/B/|dB GA/G/|FA EA|GF ED|
GF/G/ BA/B/|dB GA/G/|FA EF|1 GB GB:|2 G2 G2||
G>F/ E/F/G/F/|EE DD|CC B,B,|1 A,A, G,B,/D/:|2 A,A, G,2:|

